public/livestock/eye.svg

<svg fill="none" height="179" viewBox="0 0 179 179" width="179" xmlns="http://www.w3.org/2000/svg"><path d="m60.5201 60.0088-29.315 29.3151 29.315 29.3151c3.8375 3.848 8.3961 6.901 13.4151 8.985 5.0189 2.083 10.3995 3.157 15.8338 3.158v-12.214c-7.7296 0-15.1427-3.071-20.6083-8.537-5.4657-5.465-8.5363-12.8783-8.5363-20.6079s3.0706-15.1426 8.5363-20.6083c5.4656-5.4657 12.8787-8.5362 20.6083-8.5362v-12.4131c-5.4343.0016-10.8149 1.075-15.8338 3.1587-5.019 2.0837-9.5776 5.1369-13.4151 8.9846z" fill="#fffac2"/><path d="m60.6875 89.4463c0 7.7175 3.0612 15.1197 8.5121 20.5827 5.4509 5.464 12.8463 8.542 20.5637 8.559v-58.2735c-7.7153.0188-15.1083 3.0959-20.5586 8.5567s-8.5132 12.8598-8.5172 20.5751z" fill="#016099"/><path d="m89.8341.259277h-.0662c-23.6215 0-46.2754 9.383583-62.9783 26.086423-16.7029 16.7029-26.086475 39.3569-26.086475 62.9783 0 23.621 9.383575 46.275 26.086475 62.978s39.3568 26.087 62.9783 26.087h.0662c23.6219 0 46.2749-9.384 62.9779-26.087s26.087-39.357 26.087-62.978c0-23.6214-9.384-46.2754-26.087-62.9783-16.703-16.70284-39.356-26.086423-62.9779-26.086423zm29.3149 118.379723c-7.775 7.774-18.32 12.14-29.3149 12.14-10.9948 0-21.5395-4.366-29.3151-12.14l-29.315-29.315 29.315-29.315c7.7756-7.7734 18.3203-12.1403 29.3151-12.1403 10.9949 0 21.5399 4.3669 29.3149 12.1403l29.315 29.315z" fill="#016099"/><path d="m89.8337 60.3141c7.663.1013 14.9773 3.2164 20.3603 8.6711 5.383 5.4546 8.402 12.8099 8.402 20.4735 0 7.6635-3.019 15.0183-8.402 20.4733s-12.6973 8.57-20.3603 8.671h-.0661v12.215c5.459.011 10.8664-1.06 15.9094-3.15s9.622-5.159 13.472-9.029l29.315-29.3152-29.315-29.315c-3.853-3.8636-8.434-6.9259-13.476-9.0101-5.043-2.0842-10.4489-3.1491-15.9054-3.1333v12.4487z" fill="#00bcb4"/><path d="m118.981 89.4463c-.004-7.7277-3.077-15.1374-8.543-20.6003-5.465-5.4628-12.8766-8.5315-20.6043-8.5315h-.0661v58.2785h.0661c7.7303 0 15.1443-3.07 20.6103-8.537 5.466-5.466 8.537-12.8794 8.537-20.6097z" fill="#3d113c"/></svg>

<svg width="179" height="179" viewBox="0 0 179 179" fill="none" xmlns="http://www.w3.org/2000/svg">
<path d="M60.5201 60.0088L31.2051 89.3239L60.5201 118.639C64.3576 122.487 68.9162 125.54 73.9352 127.624C78.9541 129.707 84.3347 130.781 89.769 130.782V118.568C82.0394 118.568 74.6263 115.497 69.1607 110.031C63.695 104.566 60.6244 97.1527 60.6244 89.4231C60.6244 81.6935 63.695 74.2805 69.1607 68.8148C74.6263 63.3491 82.0394 60.2786 89.769 60.2786V47.8655C84.3347 47.8671 78.9541 48.9405 73.9352 51.0242C68.9162 53.1079 64.3576 56.1611 60.5201 60.0088V60.0088Z" fill="#FFFAC2"/>
<path d="M60.6875 89.4463C60.6875 97.1638 63.7487 104.566 69.1996 110.029C74.6505 115.493 82.0459 118.571 89.7633 118.588V60.3145C82.048 60.3333 74.655 63.4104 69.2047 68.8712C63.7544 74.332 60.6915 81.731 60.6875 89.4463V89.4463Z" fill="#016099"/>
<path d="M89.8341 0.259277H89.7679C66.1464 0.259277 43.4925 9.64286 26.7896 26.3457C10.0867 43.0486 0.703125 65.7026 0.703125 89.324C0.703125 112.945 10.0867 135.599 26.7896 152.302C43.4925 169.005 66.1464 178.389 89.7679 178.389H89.8341C113.456 178.389 136.109 169.005 152.812 152.302C169.515 135.599 178.899 112.945 178.899 89.324C178.899 65.7026 169.515 43.0486 152.812 26.3457C136.109 9.64286 113.456 0.259277 89.8341 0.259277V0.259277ZM119.149 118.639C111.374 126.413 100.829 130.779 89.8341 130.779C78.8393 130.779 68.2946 126.413 60.519 118.639V118.639L31.204 89.324L60.519 60.009C68.2946 52.2356 78.8393 47.8687 89.8341 47.8687C100.829 47.8687 111.374 52.2356 119.149 60.009V60.009L148.464 89.324L119.149 118.639Z" fill="#016099"/>
<path d="M89.8337 60.3141C97.4967 60.4154 104.811 63.5305 110.194 68.9852C115.577 74.4398 118.596 81.7951 118.596 89.4587C118.596 97.1222 115.577 104.477 110.194 109.932C104.811 115.387 97.4967 118.502 89.8337 118.603H89.7676V130.818C95.2266 130.829 100.634 129.758 105.677 127.668C110.72 125.578 115.299 122.509 119.149 118.639V118.639L148.464 89.3238L119.149 60.0088C115.296 56.1452 110.715 53.0829 105.673 50.9987C100.63 48.9145 95.2241 47.8496 89.7676 47.8654V60.3141H89.8337Z" fill="#00BCB4"/>
<path d="M118.981 89.4463C118.977 81.7186 115.904 74.3089 110.438 68.846C104.973 63.3832 97.5614 60.3145 89.8337 60.3145H89.7676V118.593H89.8337C97.564 118.593 104.978 115.523 110.444 110.056C115.91 104.59 118.981 97.1766 118.981 89.4463V89.4463Z" fill="#3D113C"/>
</svg>
